X:65
T:Dillon Brown* (reel)
T:Laington's 
B:CRE2.258 (gan ainm)
F:file ID: cre.2/065dill_b
L:1/8
M:C
R:reel
Q:180
K:A
cB|AFEF A2Ae|fece fefa|ecc2 acc/B/c|B2cB AFEF|
AFEF A2Ae|fece fefa|ecc2 acc/B/c|BABc A2:|
|:AB|c2Ac ecAc|BEED BEED|c2AC ecAc|BABc dcBA|
ceAe ceAe|BEE2 cEE2|ABce f2af|1 eccB (c2:|\
[2 eccB c2cB|A8||

%%%

